!!!!SEGMENT: 010-1b-Sm-005.krn
!!!COM: Chopin, Fryderyk
!!!OTL: Etude No. 5
!!!OPS: Op. 10
!!!PTL: Etudes pour le piano
!!!PPR: M. Schlesinger
!!!PPP: Paris
!!!AGN: Etude
!!!NIFC-rismID: 300605128
!!!NIFC-shelfmark: PL-Wbfc 1628/n
!!!OMD: Vivace.
!!!OMD: Brillante. [quarter] = 116
**kern	**kern	**fing	**dynam
*part1	*part1	*	*part1
*staff2	*staff1	*	*
*	*I" Nº 5.	*	*
*clefF4	*clefG2	*	*
*k[b-e-a-d-g-c-]	*k[b-e-a-d-g-c-]	*	*
*G-:	*G-:	*	*
*M2/4	*M2/4	*	*
*MM116	*MM116	*	*
=1	=1	=1	=1
*	*Xtuplet	*	*
*	*8va	*	*
!	!	!	!LO:DY:rj
8g-'L 8d- 8B- 8G-	(24ggg-LL	3	f
.	24bbb-	5	.
.	24ddd-JJ	1	.
8g-' 8e- 8c- 8G-	24ggg-LL	4	.
.	24eee-	2	.
.	24ggg-JJ	4	.
8g-'J 8d- 8B- 8G-	24ddd-LL	1	.
.	24ggg-	5	.
.	24bb-JJ	.	.
8r	24ddd-LL	.	.
.	24gg-	1	.
.	24bb-JJ	4	.
*	*X8va	*	*
*ped	*	*	*
=2	=2	=2	=2
!	!LO:TX:a:t=Loco	!	!
8G-' 8GG-	24gg-LL	2	p
.	24bb-	.	.
.	24dd-JJ	.	.
8g-'L 8e- 8c-	24gg-LL	.	.
.	24ee-	.	.
.	24gg-JJ	.	.
*Xped	*	*	*
8g-'J 8d- 8B-	24dd-LL	.	.
.	24gg-	.	.
.	24b-JJ	.	.
8r	24dd-LL	.	.
.	24g-	1	.
*ped	*	*	*
.	24b-JJ)	3	.
=3	=3	=3	=3
!	!LO:TX:a:t=Legato	!	!
*	*	*^	*
8D-' 8DD-	24d-LL	.	1	.
.	24dd-	.	.	.
.	24a-JJ	.	2	.
8f'L 8d- 8A-	24dd-LL	5	.	.
.	24a-	.	.	.
.	24aa-JJ	.	.	.
*Xped	*	*	*	*
8e-'J 8c- 8A-	24a-LL	.	.	<
.	24aa-	.	.	.
*ped	*	*	*	*
.	24ee-JJ	.	.	.
8AA-'	24aa-LL	.	.	.
.	24ee-	.	.	.
.	24eee-JJ	.	.	.
*Xped	*	*	*	*
*	*	*v	*v	*
!!LO:LB:g=original
=4	=4	=4	=4
*^	*	*	*
*ped	*	*	*	*
8rA	4.D-	24ee-LL	.	.
.	.	24eee-	.	.
.	.	24aa-JJ	.	.
*Xped	*	*8va	*	*
8e-^<L 8c- 8A-	.	24eee-LL	.	.
.	.	24aa-	.	.
.	.	24aaa-JJ	.	.
*ped	*	*	*	*
8d-J 8c- 8A-	.	24aa-LL	.	.
.	.	24aaa-	.	.
.	.	24ddd-JJ	.	.
8ryy	8r	24aaa-LL	.	.
.	.	24dad-	.	.
*Xped	*	*	*	*
.	.	24dddd-JJ	.	.
*v	*v	*	*	*
=5	=5	=5	=5
*ped	*	*	*
!	!	!	!LO:DY:rj
8g-L 8d- 8B- 8G-	24ggg-LL	2	f
.	24bbb-	4	.
.	24ddd-JJ	.	.
*Xped	*	*	*
8g- 8e- 8c- 8G-	24ggg-LL	.	.
.	24eee-	.	.
.	24ggg-JJ	.	.
8g-J 8d- 8B- 8G-	24ddd-LL	.	.
.	24ggg-	.	.
.	24bb-JJ	.	.
*	*X8va	*	*
!	!LO:TX:a:t=Loco	!	!
8r	24ddd-LL	.	.
.	24gg-	.	.
.	24bb-JJ	.	.
*ped	*	*	*
=6	=6	=6	=6
8G-'L 8GG-	24gg-LL	.	p
.	24bb-	.	.
.	24dd-JJ	.	.
*Xped	*	*	*
8g-' 8e- 8c-	24gg-LL	.	.
.	24ee-	.	.
.	24gg-JJ	.	.
8g-'J 8d- 8B-	24dd-LL	.	.
.	24gg-	.	.
.	24b-JJ	.	.
8r	24dd-LL	.	.
.	24g-	.	.
.	24b-JJ	.	.
!!LO:LB:g=original
=7	=7	=7	=7
8C-	24e-LL\	.	.
.	24ee-	.	.
.	24a-JJ	.	.
4e-^< 4A-	24ee-LL	.	.
.	24a-	.	.
.	24aa-JJ	.	.
.	24ee-LL	.	<
.	24aa-	.	.
.	24ee-JJ	1	.
*	*8va	*	*
8C-	24eee-LL	5	.
.	24aa-	1	.
.	24aaa-JJ	.	[[
*ped	*	*	*
=8	=8	=8	=8
*	*	*	*^
8dn: 8F 8BB-	24bb-LL	.	.	.
.	24bbb-	.	.	.
!	!LO:TX:b:t=Poco rall	!	!	!
.	24bb-JJ	.	.	.
*clefG2	*	*	*	*
8ddn: 8f 8B-	24bbb-LL	.	.	.
.	24bb-	.	.	.
.	24bbb-JJ	.	.	.
*Xped	*	*	*	*
4r	24bb-LL	.	>	.
.	24bbb-	.	.	.
.	24bb-JJ	.	.	.
.	24bbb-LL	.	.	pp
.	24bb-	.	.	.
.	24bbb-JJ	.	]	.
*	*	*	*v	*v
=9	=9	=9	=9
!	!LO:TX:t=a Tempo	!	!
8g-'L 8d- 8B- 8G-	24ggg-LL	.	f
.	24bbb-	.	.
.	24ddd-JJ	.	.
8g-' 8e- 8c-X 8G-	24ggg-LL	.	.
.	24eee-	.	.
.	24ggg-JJ	.	.
8g-'J 8d- 8B- 8G-	24ddd-LL	.	.
.	24ggg-	.	.
.	24bb-JJ	.	.
8r	24ddd-LL	.	.
.	24gg-	.	.
.	24bb-JJ	.	.
*	*X8va	*	*
*clefF4	*	*	*
!!LO:LB:g=original
=10	=10	=10	=10
*ped	*	*	*
!	!	!	!LO:DY:rj
8G-' 8GG-	24gg-LL	.	p
.	24bb-	.	.
.	24dd-JJ	.	.
8g-' 8e- 8c-L	24gg-LL	.	.
.	24ee-	.	.
.	24gg-JJ	.	.
8g-' 8d- 8B-J	24dd-LL	.	.
.	24gg-	.	.
.	24b-JJ	.	.
8r	24dd-LL	.	.
.	24g-	.	.
.	24b-JJ	.	.
*ped	*	*	*
=11	=11	=11	=11
8D-' 8DD-	24d-LL	.	.
.	24dd-	.	.
.	24a-JJ	.	.
8f'L 8d- 8A-	24dd-LL	.	.
.	24a-	.	.
.	24aa-JJ	.	.
8e-'J 8c- 8A-	24a-LL	.	.
.	24aa-	.	.
.	24ee-JJ	.	<
8AA-'	24aa-LL	.	.
.	24ee-	.	.
.	24eee-JJ	.	.
=12	=12	=12	=12
*ped	*8va	*	*
*^	*	*	*
*	*	*	*	*
8rA	4.D-	24ee-LL\	.	.
.	.	24eee-	.	.
.	.	24aa-JJ	.	.
*Xped	*	*	*	*
8e-L 8c- 8A-	.	24eee-LL	.	.
.	.	24aa-	.	.
.	.	24aaa-JJ	.	.
*ped	*	*	*	*
8d-J 8c- 8A-	.	24aa-LL	.	.
.	.	24aaa-	.	.
.	.	24eee-JJ	.	.
8ryy	8r	24aaa-LL	.	.
.	.	24ddd-	.	.
*Xped	*	*	*	*
.	.	24dddd-JJ	.	.
*v	*v	*	*	*
!!LO:LB:g=original
=13	=13	=13	=13
*ped	*	*	*
!	!	!	!LO:DY:rj
8g-'L 8d- 8B- 8G-	24ggg-LL	.	f
.	24bbb-	.	.
.	24ddd-JJ	.	.
8g-' 8e- 8c- 8G-	24ggg-LL	.	.
.	24eee-	.	.
.	24ggg-JJ	.	.
8g-'J 8d- 8B- 8G-	24ddd-LL	.	.
.	24ggg-	.	.
.	24bb-JJ	.	.
8r	24ddd-LL	.	.
.	24gg-	.	.
.	24bb-JJ	.	.
*	*X8va	*	*
*ped	*	*	*
=14	=14	=14	=14
!	!LO:TX:a:t=Loco	!	!
8G-' 8GG-	24gg-LL	.	p
.	24bb-	.	.
.	24dd-JJ	.	.
8g-'L 8e- 8c-	24gg-LL	.	.
.	24ee-	.	.
.	24gg-JJ	.	.
*Xped	*	*	*
8g-'J 8d- 8B-	24dd-LL	.	.
.	24gg-	.	.
.	24b-JJ	.	.
8r	24dd-LL	.	.
.	24g-	.	.
.	24b-JJ	.	.
=15	=15	=15	=15
*ped	*	*	*
8Cn'	24e-LL\	1	.
.	24ee-	.	.
.	24a-JJ	2	.
4g-^< 4A-	24ee-LL	5	.
.	24a-	1	.
.	24aa-JJ	.	.
.	24ee-LL	2	<
.	24aa-	.	.
.	24ee-JJ	1	.
8AA-'	24eee-LL	.	.
.	24aa-	.	.
*Xped	*	*	*
.	24eee-JJ	.	.
!!LO:LB:g=original
=16	=16	=16	=16
*ped	*	*	*
8D-'L	24ee-LL	.	.
.	24eee-	5	.
.	24aa-JJ	2	.
8f'J 8A-	24eee-LL	.	.
.	24dd-	1	.
.	24ddd-JJ	4	.
4r	24aa-LL	2	.
.	24ddd-	4	.
.	24aa-JJ	1	.
*	*8va	*	*
.	(24aaa-LL	.	.
.	24ddd-	1	.
.	24dddd-JJ	.	.
*clefG2	*	*	*
=17	=17	=17	=17
(8a-L 8g- 8cn	24aaa-LL	2	p
.	24bbb-	.	.
.	24aaa-JJ	.	.
8a-J 8g- 8A-)	24eee-LL	1	.
.	24eeee-	.	.
.	24eee-JJ	.	.
8b-L 8f 8d-	24ddd-LL	.	>
.	24eee-	.	.
.	24ddd-JJ	.	.
8a-J 8f 8A-	24aa-LL	.	]
.	24aaa-	.	.
.	24aa-JJ	.	.
*	*X8va	*	*
=18	=18	=18	=18
!	!LO:TX:a:t=Loco	!	!
8b-L 8g- 8cn	24aa-LL	.	>
.	24bb-	.	.
.	24aa-JJ	.	]]
8a-J 8g- 8A-	24ee-LL	.	.
.	24eee-	.	.
.	24ee-JJ	.	.
8fL 8d-	24dd-LL	.	.
.	24ee-	.	.
.	24dd-J)	.	.
8A-J	[8a-^J	.	.
*clefF4	*	*	*
!!LO:PB:g=original
=19	=19	=19	=19
*ped	*	*	*
8Cn'	24a-LL]	.	.
.	(24ee-	2	.
.	24aa-JJ	4	.
*Xped	*	*	*
8g-'L 8e- 8A-	24bb-LL	5	.
.	24aa-	4	.
.	24ee-JJ	2	.
*ped	*	*	*
8f'J 8d- 8A-	24dd-LL	1	.
.	24aa-	.	.
.	24ddd-JJ	.	.
8D-'	24eee-LL	.	<
.	24ddd-	.	.
*Xped	*	*	*
.	24bb-JJ)	.	.
=20	=20	=20	=20
*	*8va	*	*
*	*ped	*	*
8AA-'L	24aa-LL	.	.
.	24eee-	.	.
.	24aaa-JJ	.	.
8g-'J 8cn 8A-	24bbb-LL	.	.
.	24aaa-	.	.
*	*Xped	*	*
.	24eee-JJ	.	.
*	*ped	*	*
!LO:TX:b:t=P:mixed beam:problem	!	!	!
8DD-'L/	24ddd-LL	.	.
.	24aaa-	.	.
.	24dddd-JJ	.	.
8f'J 8d- 8A-\	24eeee-LL	.	.
.	24dddd-	.	.
*	*Xped	*	*
.	24bbb-JJ	.	.
=21	=21	=21	=21
*	*ped	*	*
8AA-	24aaa-LL	.	.
.	24bbb-	.	.
.	24aaa-JJ	.	.
*clefG2	*	*	*
8a-L 8g- 8cn	24eee-LL	.	.
.	24eeee-	.	.
.	24eee-JJ	.	.
*	*Xped	*	*
8b- 8f 8d-	24ddd-LL	.	>
.	24eee-	.	.
.	24ddd-JJ	.	]
8a-J 8f 8A-	24aa-LL	.	.
.	24aaa-	.	.
.	24aa-JJ	.	.
*	*X8va	*	*
!!LO:LB:g=original
=22	=22	=22	=22
!	!LO:TX:a:t=Loco	!	!
8b-L 8g- 8cn	24aa-LL	.	.
.	24bb-	.	.
.	24aa-JJ	.	.
8a-J 8g- 8A-	24ee-LL	.	.
.	24eee-	.	.
.	24ee-JJ	.	.
8fL 8d-	24dd-LL	.	.
.	24ee-	.	.
.	24dd-J	.	.
8A-J	[8a-^J	.	.
*clefF4	*	*	*
*ped	*	*	*
=23	=23	=23	=23
*	*	*^	*
8Cn'L	24a-LL]	.	.	.
.	(24aa-	4	.	.
.	24gg-JJ	2	.	.
8g-J 8e- 8A-'	24aa-LL	3	.	.
.	24gg-	1	.	.
.	24aa-JJ	2	.	.
8r	24ggg-LL)	.	5	.
.	(24aa-	.	2	.
.	24gg-JJ	.	1	.
(<8CCn	24aa-LL	.	3	.
.	24gg-	.	2	.
.	24aa-JJ	.	3	.
=24	=24	=24	=24	=24
8Cn`L)	(24a-LL)	1	.	.
.	24aa-	3	.	.
.	24gg-JJ	2	.	.
8g-J 8e- 8A-	24aa-LL	3	.	.
.	24gg-	1	.	.
.	24aa-JJ	2	.	.
8r	24eee-`LL)	.	5	.
.	24aa-	.	.	.
.	24gg-JJ	.	.	.
8Cn 8CCn	24aa-LL	.	.	.
.	24gg-	.	.	.
.	24aa-JJ	3	.	.
!!LO:LB:g=original
=25	=25	=25	=25	=25
*Xped	*	*	*	*
8D-' 8DD-	(24b-LL	.	1	.
.	24bb-	.	3	.
*ped	*	*	*	*
.	24gg-JJ	.	2	.
8g- 8d- 8B-	24bb-LL	.	4	.
.	24gg-	.	1	.
!	!LO:TX:t=Poco	!	!	!
.	24bb-JJ)	.	2	.
(8CnL 8CCn	24ggg-`LL	.	5	.
.	(24bb-	.	2	.
.	24gg-JJ	.	1	.
8D-J 8DD-	24bb-LL	.	4	.
!	!LO:TX:t=poco	!	!	!
.	24gg-	.	2	.
.	24bb-JJ)	.	3	.
=26	=26	=26	=26	=26
8Dn 8DDn)	(24b-LL	1	.	.
*ped	*	*	*	*
!	!	!	!	!LO:HP:t=cres
.	24bb-	.	.	<
.	24gg-JJ	.	.	.
8g- 8B-	24bb-LL	.	.	.
.	24gg-	.	.	.
*Xped	*	*	*	*
.	24bb-JJ)	.	.	.
(8C#XL 8CC#X	24ggg-`LL	.	.	.
.	(24bb-	.	2	.
.	24gg-JJ	.	1	.
8DJ 8DD	24bb-LL	.	2	.
.	24gg-	.	1	.
.	24bb-JJ)	.	2	.
*ped	*	*	*	*
=27	=27	=27	=27	=27
*	*8va	*	*	*
8E- 8EE-)	(>24gg-LL\	.	1	.
.	24bb-	.	2	.
.	24gg-JJ	.	.	.
4g-^< 4B-	24bbb-'LL	.	5	.
.	24bb-	.	2	.
.	24gg-JJ	.	1	.
.	24aaa-'LL	.	.	.
.	24bb-	.	.	.
.	24gg-JJ	.	.	.
!LO:TX:t=P:brak rozpoczęcia łuku przy 8E- 8EE-:problem	!	!	!	!
(8E- 8EE-	24ggg-'LL	.	.	.
.	24bb-	.	.	.
*Xped	*	*	*	*
.	24gg-JJ	.	.	.
*	*	*v	*v	*
!!LO:LB:g=original
=28	=28	=28	=28
*	*	*^	*
*ped	*	*	*	*
8F-X 8FF-X)	24ddd-'LL	.	.	.
.	24bb-	.	.	.
.	24gg-JJ	.	.	.
4g-^< 4B-	24bbb-'LL	.	.	.
.	24bb-	.	.	.
.	24gg-JJ	.	.	.
.	24aaa-'LL	.	.	.
.	24bb-	.	.	.
.	24gg-JJ	.	.	.
8En 8EEn	24ggg-'LL	.	5	.
.	24bb-	.	3	.
.	24gg-JJ)	.	2	.
*	*	*v	*v	*
=29	=29	=29	=29
*	*ped	*	*
8F'L 8FF	24dd-LL\	1	.
.	24ddd-	4	.
.	24bb-JJ	2	.
8fJ 8d- 8B-	24ddd-LL	4	.
.	24ddd-	1	.
*	*Xped	*	*
.	24dddd-JJ	.	.
(8EnL 8EEn	24bbb-LL	.	<
.	24dddd-	.	.
.	24ddd-JJ	.	.
8FJ 8FF)	24ddd-LL	.	.
.	24bb-	.	.
.	24ddd-JJ	.	.
*ped	*	*	*
=30	=30	=30	=30
8G-'L 8GG-	24dd-LL\	.	.
.	24ddd-	.	.
.	24bb-JJ	.	.
8f-XJ 8d- 8B-'	24ddd-LL	.	.
.	24ddd-	.	.
*Xped	*	*	*
.	24dddd-JJ	.	.
(8FnL 8FFn	24bbb-LL	.	.
.	24dddd-	.	.
.	24ddd-JJ	.	.
8G-J 8GG-)	24ddd-LL	.	.
.	24bb-	.	.
.	24ddd-JJ	.	.
!!LO:LB:g=original
=31	=31	=31	=31
*	*ped	*	*
8GnL 8GGn	24dd-\LL	.	.
.	24ddd-	.	.
.	24bb-JJ	.	.
8f-J 8d- 8G	24ddd-LL	.	.
*	*Xped	*	*
.	24bb-	.	.
*	*ped	*	*
.	24dddd-JJ	.	.
!	!LO:TX:t=Cres _:problem:dynamics with extention lines	!	!
!	!	!	!LO:HP:t=Cres
8A-L 8AA-	24aaa-LL	.	<
.	24dddd-	.	.
.	24ddd-JJ	.	.
8f-J 8d- 8A-	24ddd-LL	5	.
.	24aa-	2	.
*	*Xped	*	*
.	24ddd-JJ	5	.
*	*X8va	*	*
=32	=32	=32	=32
*	*	*^	*
*	*ped	*	*	*
!	!LO:TX:a:t=Loco	!	!	!
8B--L 8BB--	24dd-LL	1	.	.
.	24ddd-	5	.	.
.	24gg-JJ	1	.	.
8g-J 8e- 8B--	24ddd-LL	.	.	.
.	24dd-	1	.	.
.	24dd-JJ	5	.	.
8r	24g-LL	.	2	.
.	24dd-	.	.	.
.	24d-JJ	.	1	[
8BB--X/ 8BBB--/	24d-<LL	5	.	.
*Xped	*	*	*	*
.	24G-<	2	.	.
.	24d-<JJ	3	.	.
*ped	*	*	*	*
*	*	*v	*v	*
=33	=33	=33	=33
*	*	*^	*
!	!LO:TX:a:t=Sempre legatissimo	!	!	!LO:DY:rj
2AA-/ 2AAA-/	24E-<LL	.	.	f
.	24G-<	.	.	.
.	24d-<JJ	.	.	.
.	24e-LL	.	.	<
.	24G-	.	1	.
.	24d-JJ	.	.	.
.	24e-LL	.	.	.
.	24g-	.	.	.
.	24d-JJ	.	1	.
.	24e-LL	.	.	.
.	24g-	.	.	.
.	24dd-JJ	.	.	[[
*	*	*v	*v	*
!!LO:LB:g=original
=34	=34	=34	=34
*	*	*^	*
4r	(24e-LL	.	1	.
.	24g-	.	.	.
.	24dd-JJ	.	.	.
.	24ee-LL	.	.	.
.	24g-	1	.	.
.	24dd-JJ	.	.	.
8.g-L 8.d- 8.A-	24ee-LL	.	.	.
.	24gg-	.	.	.
.	24dd-JJ	1	.	.
.	24ee-LL	2	.	.
.	24ddd-	5	.	.
!	!	!	!	!LO:DY:b=2
16g-Jk 16d- 16A-	.	.	.	f
.	24gg-JJ	3	.	.
=35	=35	=35	=35	=35
2g- 2d- 2A-	24ee-LL	.	1	.
.	24gg-	.	.	.
.	24eee-JJ	.	.	>
.	24ddd-LL	.	.	.
.	24gg-	.	.	.
.	24ee-JJ	.	.	.
.	24ddd-LL	.	5	.
.	24gg-	.	.	.
.	24ee-JJ	.	.	.
.	24dd-LL	.	.	.
.	24gg-	.	5	.
.	24ee-JJ	.	.	.
=36	=36	=36	=36	=36
2rF	24dd-LL	.	.	.
.	24g-	.	.	.
.	24ee-JJ	5	.	]
.	24dd-LL	.	.	>
.	24g-	.	.	.
.	24e-JJ	.	.	.
.	24dd-LL	.	5	.
.	24g-	.	.	.
.	24e-JJ	.	.	.
.	24d-LL	.	1	.
*Xped	*	*	*	*
.	24g-	.	4	.
.	24e-JJ)	.	2	.
!!LO:PB:g=original
=37	=37	=37	=37	=37
*ped	*	*	*	*
2AA- 2AAA-\	(>24A-<LL	1	.	.
.	24e-	.	.	.
.	24g-JJ	.	.	.
.	24a-LL	.	.	<
.	24e-	.	1	.
.	24g-JJ	.	.	.
.	24a-LL	.	.	.
.	24ee-	.	.	.
.	24g-JJ	1	.	.
.	24a-LL	.	.	.
.	24ee-	.	.	.
.	24gg-JJ	.	.	.
*	*	*v	*v	*
=38	=38	=38	=38
4r	24a-LL	1	.
.	24ee-	.	.
.	24gg-JJ	.	.
.	24aa-LL	.	.
.	24ee-	1	.
.	24gg-JJ	.	.
*clefG2	*	*	*
8.a-L 8.g- 8.cn 8.A-	24aa-LL	.	.
.	24eee-	.	.
.	24gg-JJ	1	.
.	.	.	[
.	24aa-LL	.	.
.	24ggg-	5	.
16a-Jk 16g- 16c 16A-	.	.	.
.	24eee-JJ	4	.
=39	=39	=39	=39
2a- 2g- 2cn 2A-	24aa-LL	2	.
.	24gg-	1	.
.	24eee-JJ	5	.
.	24aa-LL	.	.
.	24gg-	.	>
.	24ee-JJ	.	.
.	24aa-LL	5	.
.	24gg-	.	.
.	24ee-JJ	.	.
.	24a-LL	.	.
.	24gg-	5	.
.	24ee-JJ	.	]]
*clefF4	*	*	*
!!LO:LB:g=original
=40	=40	=40	=40
*	*	*^	*
2r	24a-LL	.	.	.
.	24g-	5	.	.
.	24ee-JJ	.	.	.
.	24a-LL	.	.	>
.	24g-	.	.	.
.	24e-JJ	.	.	.
.	24a-LL	.	5	.
.	24g-	.	.	.
.	24e-JJ	.	.	.
.	24A-LL	.	.	.
.	24g-	.	4	.
*Xped	*	*	*	*
.	24e-JJ)	.	2	.
*	*	*v	*v	*
=41	=41	=41	=41
*ped	*	*	*
8DD-'	(24d-LL\	1	p
.	24dd-	4	.
.	24a-JJ	2	.
8r	24dd-LL	4	.
.	24a-	1	.
.	24aa-JJ	5	.
[4f [>4A-	24dd-LL	2	.
.	24aa-	5	.
.	24a-JJ	1	.
.	24dd-LL	4	.
.	24a-	2	.
.	24dd-JJ	4	.
=42	=42	=42	=42
4f] 4A-]	24d-LL	.	.
.	24dd-	.	.
.	24a-JJ	.	.
.	24dd-LL	.	.
.	24a-	.	.
.	24aa-JJ	.	.
8.enL 8.Gn	24dd-LL	.	.
.	24aa-	.	.
.	24a-JJ	.	.
.	24dd-LL	.	.
.	24a-	.	.
16fJk 16A-	.	.	.
.	24dd-JJ)	.	.
*clefF4	*	*	*
!!LO:LB:g=original
=43	=43	=43	=43
8D-	24d-LL\	.	.
.	24dd-	.	.
.	24a-JJ	.	.
8r	24dd-LL	5	.
.	24dd-	1	.
.	24ddd-JJ	.	.
[4f [>4A-	24aa-LL	2	.
.	24ddd-	5	.
.	24dd-JJ	1	.
.	24dd-LL	5	.
.	24a-	.	.
.	24dd-JJ	.	.
=44	=44	=44	=44
4f] 4A-]	24a-LL	1	.
.	24aa-	5	.
.	24dd-JJ	2	.
.	24aa-LL	5	<
.	24aa-	1	.
.	24aaa-JJ	.	.
8.enL 8.Gn	24ddd-LL	.	.
.	24aaa-	.	.
.	24aa-JJ	.	.
.	24aa-LL	.	.
.	24dd-	2	.
16fJk 16A-	.	.	.
*Xped	*	*	*
.	24aa-JJ	5	.
*ped	*	*	*
=45	=45	=45	=45
8D-'	24dd-LL	1	.
.	24ee-	2	.
.	24dd-JJ	1	.
*clefG2	*8va	*	*
8fL 8d- 8A-	24eee-LL	5	<
.	24ddd-	1	.
.	24eeee-JJ	5	.
8g- 8d- 8B--	24dddd-LL	4	.
.	24eeee-	5	.
.	24dddd-JJ	4	.
8gnJ 8d- 8B-X	24ddd-LL	1	.
.	24eee-	5	.
.	24ddd-JJ	4	[[
*	*X8va	*	*
!!LO:LB:g=original
=46	=46	=46	=46
!	!LO:TX:a:t=Loco	!	!
*	*	*	*^
*	*	*	*	*below
!	!	!	!	!LO:HP:b=2
(>4a- 4d- 4c-	24dd-LL	1	.	>
.	24ee-	2	.	.
.	24dd-JJ	1	.	.
*	*8va	*	*	*
.	24eee-LL	5	.	.
.	24ddd-	1	.	.
.	24eeee-JJ	.	.	.
8gnL 8d- 8B-	24dddd-LL	.	>	.
.	24eeee-	.	.	.
.	24dddd-JJ	.	.	.
)8g-XJ 8d- 8B--	24ddd-LL	.	.	]
.	24eee-	.	.	.
*Xped	*	*	*	*
.	24ddd-JJ	.	]	.
*	*	*	*v	*v
=47	=47	=47	=47
*^	*	*	*
8ryy	8f' 8d- 8A-	24dddd-LL	4	.
.	.	24eeee-	5	.
*ped	*	*	*	*
.	.	24dddd-JJ	4	.
*clefF4	*	*	*	*
8ryy	8D-'	24ddd-LL	1	.
.	.	24eee-	2	.
.	.	24ddd-JJ	1	.
*clefG2	*	*	*	*
(8a-/L 8f/ 8d-/	4c-\	24dddd-LL	.	.
.	.	24eeee-	.	.
.	.	24dddd-JJ	.	.
8b-J	.	24ddd-LL	.	.
.	.	24ede-	.	.
.	.	24ddd-JJ	.	.
=48	=48	=48	=48	=48
4cc-	2f 2d- 2c-	24dddd-LL	.	.
.	.	24eeee-	.	>
.	.	24dddd-JJ	.	.
.	.	24ddd-LL	.	.
.	.	24eee-	.	.
.	.	24ddd-JJ	.	.
8b-L	.	24dddd-LL	.	]
.	.	24eeee-	.	.
.	.	24dddd-JJ	.	.
8a-J)	.	24ddd-LL	.	.
.	.	24eee-	.	.
.	.	24ddd-JJ	.	.
*v	*v	*	*	*
!!LO:LB:g=original
=49	=49	=49	=49
8g-'L 8d- 8B- 8G-	24ggg-LL	3	f
.	24bbb-	5	.
.	24ddd-JJ	1	.
8g-' 8e- 8c- 8G-	24ggg-LL	4	.
.	24eee-	.	.
.	24ggg-JJ	.	.
8g-'J 8d- 8B- 8G-	24ddd-LL	.	.
.	24ggg-	.	.
.	24bb-JJ	.	.
*	*X8va	*	*
!	!LO:TX:a:t=Loco.	!	!
8r	24ddd-LL	.	.
.	24gg-	.	.
.	24bb-JJ	.	.
*clefF4	*	*	*
*ped	*	*	*
=50	=50	=50	=50
8G-'L 8GG-	24gg-LL	.	p
.	24bb-	.	.
.	24dd-JJ	.	.
8g-' 8e- 8c-	24gg-LL	.	.
.	24ee-	.	.
.	24gg-JJ	.	.
*Xped	*	*	*
8g-'J 8d- 8B-	24dd-LL	.	.
.	24gg-	.	.
.	24b-JJ	.	.
8r	24dd-LL	.	.
.	24g-	.	.
.	24b-JJ	.	.
*ped	*	*	*
=51	=51	=51	=51
8D-' 8DD-	24d-LL\	.	.
.	24dd-	.	.
.	24a-JJ	.	.
*Xped	*	*	*
8f'L 8d- 8A-	24dd-LL	.	.
.	24a-	.	.
.	24aa-JJ	.	.
*ped	*	*	*
8e-'J 8c- 8A-	24a-LL	.	.
.	24aa-	.	.
.	24ee-JJ	.	<
8AA-'	24aa-LL	.	.
.	24ee-	.	.
*Xped	*	*	*
.	24eee-JJ	.	.
!!LO:PB:g=original
=52	=52	=52	=52
*^	*	*	*
*ped	*	*	*	*
8rA	4.D-	24ee-LL	.	.
.	.	24eee-	.	.
.	.	24aa-JJ	.	.
*	*	*8va	*	*
8e-L 8c- 8A-	.	24eee-LL	.	.
.	.	24aa-	.	.
.	.	24aaa-JJ	.	.
*Xped	*	*	*	*
8d-J 8c- 8A-	.	24aa-LL	.	.
.	.	24aaa-	.	.
.	.	24eee-JJ	.	.
8ryy	8r	24aaa-LL	.	.
.	.	24ddd-	.	.
.	.	24dddd-JJ	.	.
*v	*v	*	*	*
=53	=53	=53	=53
8g-'L 8d- 8B- 8G-	24ggg-LL	.	f
.	24bbb-	.	.
.	24ddd-JJ	.	.
8g-' 8e- 8c- 8G-	24ggg-LL	.	.
.	24eee-	.	.
.	24ggg-JJ	.	.
8g-'J 8d- 8B- 8G-	24ddd-LL	.	.
.	24ggg-	.	.
.	24bb-JJ	.	.
*	*X8va	*	*
!	!LO:TX:a:t=Loco	!	!
8r	24ddd-LL	.	.
.	24gg-	.	.
.	24bb-JJ	.	.
*ped	*	*	*
=54	=54	=54	=54
8G-'L 8GG-	24gg-LL	.	p
.	24bb-	.	.
.	24dd-JJ	.	.
8g-' 8e- 8c-	24gg-LL	.	.
.	24ee-	.	.
.	24gg-JJ	.	.
8g-'J 8d- 8B-	24dd-LL	.	.
.	24gg-	.	.
.	24b-JJ	.	.
8r	24dd-LL	.	.
.	24g-	.	.
.	24b-JJ	.	.
!!LO:LB:g=original
=55	=55	=55	=55
*ped	*	*	*
8C-'L	24e-LL\	.	.
.	24ee-	.	.
.	24a-JJ	.	.
*	*	*	*below:2
(8e-J 8A-	24ee-LL	.	>
*Xped	*	*	*
.	24a-	.	.
.	24aa-JJ	.	]]
*ped	*	*	*below
8dnL 8B- 8F)	24b-LL	.	.
!	!LO:TX:t=Cres _:problem:dynamics with extention line	!	!
!	!	!	!LO:HP:t=Cres
.	24bb-	.	<
.	24b-JJ	.	.
(8BB-J	24bb-LL	.	.
.	24b-	.	.
*Xped	*	*	*
.	24bb-JJ	.	.
*ped	*	*	*
=56	=56	=56	=56
8C-'L)	24ee-LL	.	.
.	24eee-	.	.
.	24aa-JJ	.	.
*	*8va	*	*
(8e-^<J 8A-	24eee-LL	.	.
*Xped	*	*	*
.	24aa-	.	.
*ped	*	*	*
.	24aaa-JJ	.	.
8dnL 8B- 8F)	24bb-LL	.	.
.	24bbb-^	.	.
.	24bb-JJ	.	.
8BB-'J	24bbb-LL	.	.
.	24bb-	.	.
*Xped	*	*	*
.	24bbb-JJ	.	[[
=57	=57	=57	=57
*ped	*	*	*
8C-'L	24bb-^<LL	.	.
.	24bbb-	.	.
.	24eee-JJ	.	.
*clefG2	*	*	*
8a-'J 8e- 8c-	24bbb-LL	5	.
*Xped	*	*	*
.	24aa-	1	.
.	24aaa-JJ	.	.
*clefF4	*	*	*
*ped	*	*	*
8D-'L	24aa-^<LL	1	.
.	24aaa-	5	.
.	24ddd-JJ	.	.
*clefG2	*	*	*
8g-'J 8d- 8B-	24aaa-LL	.	.
.	24gg-	1	.
*Xped	*	*	*
.	24ggg-JJ	.	.
*clefF4	*	*	*
!!LO:LB:g=original
=58	=58	=58	=58
*ped	*	*	*
8C-'L	24dd^<-LL\	.	.
.	24ddd-	.	.
.	24aa-JJ	2	.
*clefG2	*	*	*
*Xped	*	*	*
8a-J 8f 8d- 8c-	24ddd-LL	5	.
.	24aa-	1	.
.	24aaa-JJ	.	.
*clefF4	*	*	*
*ped	*	*	*
8BB-'L	24gg-^<LL	1	.
.	24ggg-	.	.
.	24ddd-JJ	2	.
*clefG2	*	*	*
8b-J 8g- 8d- 8B-	24ggg-LL	5	.
.	24ddd-	1	.
*Xped	*	*	*
.	24dddd-JJ	.	.
*clefF4	*	*	*
=59	=59	=59	=59
*ped	*	*	*
8C-'L	24bb-^<LL	1	.
.	24bbb-	.	.
.	24eee-JJ	.	.
*clefG2	*	*	*
8a-'J 8e- 8c-	24bbb-LL	.	.
*Xped	*	*	*
.	24aa-	1	.
.	24aaa-JJ	.	.
*ped	*	*	*
*clefF4	*	*	*
8D-'L	24aa-^<LL	.	.
.	24aaa-	.	.
.	24ddd-JJ	.	.
*clefG2	*	*	*
8b-'J 8g- 8d- 8B-	24aaa-LL	.	.
.	24gg-	.	.
.	24ggg-JJ	.	.
*clefF4	*	*	*
!!LO:LB:g=original
=60	=60	=60	=60
*ped	*	*	*
8C-'L	24dd-LL\	.	.
.	24ddd-	.	.
.	24aa-JJ	.	.
*clefG2	*	*	*
8a-'J 8f 8d- 8c-	24ddd-LL	.	.
*Xped	*	*	*
.	24aa-	.	.
*ped	*	*	*
.	24aaa-JJ	.	.
*clefF4	*	*	*
!	!LO:TX:t=P:diminuendolike accent:problem	!	!
8BB-'L	24bb-^<LL	.	.
.	24ggg-	.	.
.	24ddd-JJ	.	.
*clefG2	*	*	*
8b-'J 8g- 8d- 8B-	24ggg-LL	.	.
*Xped	*	*	*
.	24ddd-	.	.
.	24dddd-JJ	.	.
*clefF4	*	*	*
=61	=61	=61	=61
*ped	*	*	*
8C-	24bb-LL	1	.
!	!LO:TX:t=P:diminuendolike accent:problem	!	!
.	24bbb-^<	5	.
.	24eee-JJ	2	.
4a-^< 4e- 4A-	24bbb-LL	5	.
.	24aa-	1	.
.	24aaa-JJ	4	.
!	!LO:TX:t=P:diminuendolike accent:problem	!	!
.	24bb-^<LL	1	.
.	24bbb-	5	.
.	24eee-JJ	2	.
8C-	24bbb-LL	5	.
.	24aa-	.	.
.	24aaa-JJ	4	.
*Xped	*	*	*
!!LO:LB:g=original
=62	=62	=62	=62
*ped	*	*	*
8Cn	24bb-LL	.	.
.	24bbb-	.	.
.	24eee-JJ	.	.
4a-^< 4g- 4e- 4A-	24bbb-LL	.	.
.	24aa-	.	.
.	24aaa-JJ	.	.
!	!LO:TX:t=Cres _:problem:dynamics with extention lines	!	!
!	!	!	!LO:HP:t=Cres
.	24bb-LL	.	<
.	24bbb-	.	.
.	24eee-JJ	.	.
8C	24bbb-LL	.	.
.	24aa-	.	.
*Xped	*	*	*
.	24aaa-JJ	.	.
=63	=63	=63	=63
*ped	*	*	*
4D-'	(>24ddd-LL	2	.
.	24bbb-	5	.
.	24aa-JJ	1	.
.	24aaa-LL	4	.
.	24ddd-	2	.
.	24bbb-JJ	5	.
*clefG2	*	*	*
4a- 4g- 4d- 4A-	24aa-LL	1	.
.	24aaa-	4	.
.	24ddd-JJ	2	.
.	24bbb-LL	5	.
.	24aa-	1	[
.	24aaa-JJ	4	.
=64	=64	=64	=64
4dd- 4a- 4g-	24ddd-LL	.	.
.	24bbb-	.	.
.	24aa-JJ	.	.
.	24aaa-LL	.	.
.	24ddd-	.	.
.	24bbb-JJ	.	.
!	!LO:TX:b:t=Poco rall	!	!
4r	24aa-LL	.	.
.	24aaa-	.	.
.	24ddd-JJ	.	.
.	24bbb-LL	.	.
.	24aa-	.	.
.	24aaa-JJ	4	.
*clefF4	*	*	*
!!LO:PB:g=original
=65	=65	=65	=65
8qqDD-/	.	.	.
2g- 2d- 2A- 2D-	24eeee-LL)	5	pp
.	48rfff	.	.
.	48dddd-k(	3	.
.	24bbb-JJ	2	.
!	!LO:TX:b:t=Delicat	!	!
.	24aaa-LL	1	.
.	24ggg-	4	.
.	24eee-JJ	3	.
*	*X8va	*	*
!	!LO:TX:a:t=Loco	!	!
.	24ddd-LL	2	.
.	24bb-	1	.
.	24aa-JJ	4	.
!	!LO:TX:b:t=Smorz	!	!
.	24gg-LL	3	.
.	24ee-	2	.
*Xped	*	*	*
.	24dd-JJ	1	.
=66	=66	=66	=66
*ped	*	*	*
*^	*	*	*
*	*	*	*^	*
!LO:S:s=2:note:problem:note-level slur	!	!	!	!	!
(>4g- (4e-	2c- 2A- 2D-	4a-	.	2	.
*Xped	*	*	*	*	*
.	.	.	.	.	.
!LO:S:s=2:note:problem:note-level slur	!	!	!	!	!
4f) 4d-)	.	8.b-L	.	4	.
*ped	*	*	*	*	*
.	.	16a-Jk)	.	.	.
*	*	*	*v	*v	*
*clefG2	*	*	*	*
=67	=67	=67	=67	=67
8g-L 8B-	2G-	8g-	.	p
!LO:TX:b:t=legato	!	!LO:TX:b:t=a Tempo	!	!
8d-	.	8r	.	.
*	*	*8va	*	*
8a- 8c-	.	24aaa-LL	.	.
.	.	24bbb-	.	.
.	.	24aaa-JJ	.	.
8fJ 8A-	.	24ddd-LL	.	.
.	.	24dddd-	.	.
.	.	24ddd-JJ	.	.
=68	=68	=68	=68	=68
8g-L 8B-	2G-	24ddd-LL	.	.
.	.	24eee-	.	.
.	.	24ddd-JJ	.	.
8d-	.	24gg-LL	.	.
.	.	24ggg-	.	.
.	.	24gg-JJ	.	.
*	*	*X8va	*	*
!	!	!LO:TX:a:t=Loco	!	!
8a- 8c-	.	24aa-LL	.	.
.	.	24bb-	.	.
.	.	24aa-J	.	.
8fJ 8A-	.	[8dd-^J	.	.
*v	*v	*	*	*
*clefF4	*	*	*
!!LO:LB:g=original
=69	=69	=69	=69
8g- 8B- 8G-	24dd-LL]	.	.
.	24gg-	.	.
.	24aa-JJ	.	.
8r	24bb-LL	.	.
.	24aa-	.	.
.	24gg-JJ	.	.
!	!LO:TX:b:t=Poco\ cres:dur=q:ext=s:problem:text with extention lines	!	!
*	*	*	*below:2
!	!	!	!LO:HP:b=2
(8e-L 8c- 8F	24dd-LL	.	>
.	24aa-	.	.
.	24ddd-JJ	.	]]
*	*	*	*below
)8d-J 8D-	24eee-LL	.	.
.	24ddd-	.	.
.	24aa-JJ	.	.
=70	=70	=70	=70
*	*8va	*	*below:2
(8e-L 8B- 8G-	24gg-LL	.	>
.	24ddd-	.	.
.	24ggg-JJ	.	.
8d-J 8D-)	24aaa-LL	.	]
.	24ggg-	.	.
.	24eee-JJ	.	.
(8e-L 8c- 8F	24ddd-LL	.	>
.	24aaa-	.	.
.	24dddd-JJ	.	.
8d-J 8D-)	24eeee-LL	.	]
.	24dddd-	.	.
.	24aaa-JJ	.	.
*clefG2	*	*	*below
=71	=71	=71	=71
*^	*	*	*
8g-L 8B-	2G-	24ggg-LL	.	p
.	.	24aaa-	.	.
.	.	24ggg-JJ	.	.
8d-	.	24ddd-LL	.	.
.	.	24dddd-	.	.
.	.	24ddd-JJ	.	.
8a- 8c-	.	24ddd-LL	.	.
.	.	24eee-	.	.
.	.	24ddd-JJ	.	.
8fJ 8A-	.	24aa-LL	.	.
.	.	24aaa-	.	.
.	.	24aa-JJ	.	.
*	*	*X8va	*	*
=72	=72	=72	=72	=72
!	!	!LO:TX:a:t=Loco	!	!
8g-L 8B-	2G-	24aa-LL	.	.
.	.	24bb-	.	.
.	.	24aa-JJ	.	.
8d-	.	24gg-LL	.	.
.	.	24ggg-	.	.
.	.	24gg-JJ	.	.
!	!	!LO:TX:a:t=P:brak początku ligatury przy 4dd- w partyturze:problem	!	!
8a- 8c-	.	[4dd-^	.	.
8fJ 8A-	.	.	.	.
*v	*v	*	*	*
*clefF4	*	*	*
!!LO:LB:g=original
=73	=73	=73	=73
8g-L 8B- 8G-	24dd-LL]	.	.
.	24gg-	.	.
.	24aa-JJ	.	.
8d-J	24bb-LL	.	.
.	24aa-	.	.
.	24gg-JJ	.	.
!	!LO:TX:b:t=Poco\ cres:dur=q:ext=s:problem:text with extention lines	!	!
8e-^<L 8c- 8F	24dd-LL	.	.
.	24aa-	.	.
.	24ddd-JJ	.	.
8d-J 8D-	24eee-LL	.	.
.	24ddd-	.	.
.	24aa-JJ	.	.
=74	=74	=74	=74
*	*8va	*	*
8e-^<L 8B- 8G-	24gg-LL	.	.
.	24ddd-	.	.
.	24ggg-JJ	.	.
8d-J 8D-	24aaa-LL	.	.
.	24ggg-	.	.
.	24ddd-JJ	.	.
8e-L 8c- 8F	24aa-LL	.	.
.	24ddd-	.	.
.	24aaa-JJ	.	.
8d-J 8D-	24bbb-LL	.	.
.	24aaa-	.	.
.	24ddd-JJ	.	.
*clefG2	*	*	*
=75	=75	=75	=75
4b-: 4d- 4G-	24bbb-LL	.	f
.	24ddd-	.	.
.	24aaa-JJ	4	.
.	24bb-LL	1	.
.	24aaa-	5	.
.	24ddd-JJ	.	.
8r	24ggg-LL	4	.
.	24bb-	1	.
.	24eee-JJ	5	.
*clefF4	*X8va	*	*below:2
!	!LO:TX:a:t=Loco	!	!
(8f 8c- 8A- 8D-	24aa-LL	2	>
.	24ddd-	4	.
.	24dd-JJ	1	.
=76	=76	=76	=76
4g- 4B- 4G-)	24bb-LL	5	]
*	*	*	*below
.	24dd-	.	.
.	24aa-JJ	.	.
.	24b-LL	.	.
.	24aa-	.	.
.	24dd-JJ	.	.
8r	24gg-LL	.	.
.	24b-	.	.
.	24ee-JJ	.	.
8F^ 8C- 8DD-	24a-LL\	.	.
.	24dd-	.	.
.	24d-JJ	.	.
!!LO:LB:g=original
=77	=77	=77	=77
4G- 4BB- 4GG-\	24b-LL	.	.
.	24d-	.	.
.	24a-JJ	.	.
.	24B-LL	.	.
.	24a-	.	.
.	24d-JJ	.	.
8r	24g-LL	.	.
.	24B-	.	.
.	24e-JJ	.	.
8DD-\	24A-<LL	.	.
.	24d-	.	.
.	24D-<JJ	.	.
=78	=78	=78	=78
!	!	!	!LO:DY:rj
8GG-L 8GGG-\	24B-<LL	3	ff
.	24G-<	2	.
.	24e-JJ	5	.
8DD-	24D-<LL	1	.
.	24d-	4	.
.	24A-<JJ	2	.
8GG- 8GGG-	24B-<LL	3	.
.	24G-<	2	.
.	24e-JJ	5	.
8DD-J	24D-<LL	.	.
.	24d-	.	.
.	24A-<JJ	.	.
=79	=79	=79	=79
8GG- 8GGG-\	8B-</	.	.
8rEEyy	(24d-<^>LL 24B-<	.	.
.	24A-<	.	.
.	24G-<JJ)	.	.
8ryy	(<24g-^>LL 24e-	.	.
.	24d-	.	.
.	24B-JJ)	.	.
*Xtuplet	*	*	*
(24GG-LL	(24b-^>LL 24g-	.	.
24D-	24e-	.	.
24B-JJ)	24d-JJ)	.	.
=80	=80	=80	=80
(>24GG-LL	(24dd-^<LL 24b-\	.	.
24D-	24a-	.	.
24B-JJ)	24g-JJ)	.	.
(24BB-LL	(24gg-^<LL 24ee-	.	.
24G-	24dd-	.	.
24d-JJ)	24b-JJ)	.	.
(24D-LL	(24bb-^<LL 24gg-	.	.
24B-	24ee-	.	.
24g-JJ)	24dd-JJ)	.	.
*clefG2	*	*	*
(<24G-LL	(24ddd-^<LL 24bb-	.	.
24d-	24aa-	.	.
24b-JJ)	24gg-JJ)	.	.
!!LO:LB:g=original
=81	=81	=81	=81
*	*8va	*	*
(24B-LL\	(24ggg-LL 24eee-	.	.
24g-	24ddd-	.	.
)24dd-JJ	24bb-JJ)	.	.
!	!LO:TX:t=Cres _:problem:dynamics with extention lines	!	!
!	!	!	!LO:HP:t=Cres
(24d-LL	(24bbb-LL 24ggg-	.	<
24b-	24eee-	.	.
)24gg-JJ	24ddd-JJ)	.	.
(24g-LL	(24ggg-LL 24eee-	.	.
24b-	24ddd-	.	.
)24gg-JJ	24bb-JJ)	.	.
(24d-LL	(24bbb-LL 24ggg-	.	.
24b-	24eee-	.	.
)24gg-JJ	24ddd-JJ)	.	.
=82	=82	=82	=82
(24g-LL	(24ggg-LL 24eee-	.	.
24b-	24ddd-	.	.
)24gg-JJ	24bb-JJ)	.	.
(24d-LL	(24bbb-LL 24ggg-	.	.
24b-	24eee-	.	.
)24gg-JJ	24ddd-JJ)	.	.
(24g-LL	(24ggg-LL 24eee-	.	.
24b-	24ddd-	.	.
)24gg-JJ	24bb-JJ)	.	.
(24d-LL	(24bbb-LL 24ggg-	.	.
24b-	24eee-	.	.
)24gg-JJ	24ddd-JJ)	.	[
=83	=83	=83	=83
24g-'	24gbg-' 24bb-	.	.
*	*X8va	*	*
24r	24r	.	.
*clefF4	*	*	*
!	!LO:TX:a:t=Loco	!	!
24g-' 24G-	24ggg-' 24gg-	.	ff
24e-'LL 24E-	24eee-'LL 24ee-	.	.
24d-' 24D-	24ddd-' 24dd-	.	.
24B-'JJ 24BB-	24bb-'JJ 24b-	.	.
24A-'LL 24AA-	24aa-'LL 24a-	.	.
24G-' 24GG-	24gg-' 24g-	.	.
24E-'JJ 24EE-	24ee-'JJ 24e-	.	.
24D-'LL 24DD-	24dd-'LL 24d-	.	.
24BB-' 24BBB-	24b-' 24B-	.	.
24AA-'JJ 24AAA-	24a-'JJ 24A-	.	.
=84	=84	=84	=84
8GG-' 8GGG-	8g-' 8G-	.	.
8r	8r	.	.
*clefG2	*8va	*	*
4b-: 4d- 4G-	4bbb- 4ggg- 4ddd- 4bb-	.	.
*clefF4	*X8va	*	*
=85	=85	=85	=85
!	!LO:TX:a:t=Loco	!	!
1GG-;< 1GGG-	1G-<	.	.
!!LO:PB:g=original
==	==	==	==
*-	*-	*-	*-
!!!RDF**kern: > = above
!!!RDF**kern: < = below
!!!RDF**dynam: < = "Cres", fontstyle="normal"
!!!RDF**dynam: > = "Dim", fontstyle="normal"
!!!ENC: Tomasz Sierawski
!!!END: 2018-09-13
!!!EED: Jędrzej Mróz
!!!EST: 2018-09-13
!!!EED2: Emilia Ziętek
!!!EST2: 2019-09-18
!!!rism-genre: Etude
!!!rism-key: G-flat major
!!!rism-opus: op.  10, no. 5
!!!rism-title: Etude in G-flat major op.  10, no. 5
!!!rism-permalink: https://opac.rism.info/search?id=300605128&View=rism
!!!rism-773a-OPR: 300605123
!!!rism-parent-permalink: https://opac.rism.info/search?id=300605123&View=rism
